X: 070431
T: Green-Grass Reel
C: Eamon Flynn
Z: B.Black
R: reel
M: 4/4
L: 1/8
K: A
ABce a3 e|fece a3 a|ABce a3 e|fecB cB (3BAB |
ABce a3 e|fece a3 e|agae faec|dcBd cAAB ||
ABce fc (3ccc |accg ccfc |ABce fece | dcBA BAFE |
ABce fc (3ccc |accg ccfc |agfe fece | dcBA BAFE ||
